X:1
T: Daniel O'Rourke
C:
R:Jig
Q:180
K:D
M:6/8
L:1/16
|:ba|g2d2B2 B2d2B2|g2d2B2 g2b2a2|g2d2B2 B2d2B2|e2c2A2 A4f2|g2d2B2 B2d2B2|g2d2B2 B2d2B2|g2d2B2 g2a2b2|a2f2d2 g2e2c2|d2e2d2 d4:|
|:z2|d4b2 a2f2d2|a2f2d2 f2g2a2|d4b2 a2f2d2|e2c2A2 c2d2e2|d4b2 a2f2d2|a2f2d2 f2g2a2|1b2g2e2 a2f2d2|e2c2A2 c2d2e2:|1B2g2e2 c2A2c2|d2e2d2 d4|
|:Bc|d4d'2 d'2a2g2|f2d2d2 d2e2f2|g2a2g2 b2g2e2|c2A2A2 A4Bc|d4d'2 d'2a2|g2f2d2 d2d4dc|B2g2e2 c2A2c2|d2e2d2 d4:|
